**kern	**silbe	**kern	**silbe	**harmony	**phrase	**leadinstrument	**rhyme	**timestamp	**harte
*ICvox	*	*ICvox	*	*M4/4	*	*	*	*	*M4/4
*VRlead	*	*VRharmonize	*	*	*	*	*	*	*
*Hstimme	*	*Nstimme	*	*	*	*	*	*	*
*G:	*	*G:	*	*G:	*	*	*	*	*G:
*M4/4	*	*M4/4	*	*	*	*	*	*	*
*clefG2	*	*clefG2	*	*	*	*	*	*	*
r;	.	r;	.	1r;	.	r	.	0	N.C.
=1	=1	=1	=1	=1	=1	=1	=1	=1	=1
*>Letter>A	*>Letter>A	*>Letter>A	*>Letter>A	*>Letter>A	*>Letter>A	*>Letter>A	*>Letter>A	*>Letter>A	*>Letter>A
*>Label>Intro	*>Label>Intro	*>Label>Intro	*>Label>Intro	*>Label>Intro	*>Label>Intro	*>Label>Intro	*>Label>Intro	*>Label>Intro	*>Label>Intro
1r	.	1r	.	1GM	newline	guitar	.	0.232	G:maj
=2	=2	=2	=2	=2	=2	=2	=2	=2	=2
1r	.	1r	.	1GMM	.	guitar	.	2.068	G:maj7
=3	=3	=3	=3	=3	=3	=3	=3	=3	=3
1r	.	1r	.	1CM	.	guitar	.	3.904	C:maj
=4	=4	=4	=4	=4	=4	=4	=4	=4	=4
1r	.	1r	.	1CM	.	guitar	.	5.74	C:maj
=5	=5	=5	=5	=5	=5	=5	=5	=5	=5
1r	.	1r	.	1Am	newline	guitar	.	7.576	A:min
=6	=6	=6	=6	=6	=6	=6	=6	=6	=6
1r	.	1r	.	1DMm	.	guitar	.	9.375	D:7
=7	=7	=7	=7	=7	=7	=7	=7	=7	=7
1r	.	1r	.	1GM	.	guitar	.	11.174	G:maj
=8	=8	=8	=8	=8	=8	=8	=8	=8	=8
1r	.	1r	.	1GM	.	guitar	.	12.973	G:maj
=9	=9	=9	=9	=9	=9	=9	=9	=9	=9
*>Letter>B	*>Letter>B	*>Letter>B	*>Letter>B	*>Letter>B	*>Letter>B	*>Letter>B	*>Letter>B	*>Letter>B	*>Letter>B
*>Label>Verse	*>Label>Verse	*>Label>Verse	*>Label>Verse	*>Label>Verse	*>Label>Verse	*>Label>Verse	*>Label>Verse	*>Label>Verse	*>Label>Verse
8B	Ci-	1r	.	1GM	newline	voice	.	14.772	G:maj
4B	-ty	.	.	.	.	.	a	.	.
4.B	girls	.	.	.	.	.	B	.	.
4B	just	.	.	.	.	.	.	.	.
=10	=10	=10	=10	=10	=10	=10	=10	=10	=10
4B	seem	1r	.	1GMM	.	voice	A	16.582	G:maj7
8B	to	.	.	.	.	.	.	.	.
4.B	find	.	.	.	.	.	.	.	.
4B	out	.	.	.	.	.	.	.	.
=11	=11	=11	=11	=11	=11	=11	=11	=11	=11
16B	ear-	1r	.	1CM	.	voice	(B	18.392	C:maj
16A	_	.	.	.	.	.	.	.	.
8G	_	.	.	.	.	.	.	.	.
2G	-ly	.	.	.	.	.	a)	.	.
4r	.	.	.	.	.	.	.	.	.
=12	=12	=12	=12	=12	=12	=12	=12	=12	=12
1r	.	1r	.	1CM	.	voice	.	20.202	C:maj
=13	=13	=13	=13	=13	=13	=13	=13	=13	=13
4A	how	1r	.	1Am	newline	voice	.	22.012	A:min
8A	to	.	.	.	.	.	.	.	.
4A	o-	.	.	.	.	.	.	.	.
8A	-pen	.	.	.	.	.	.	.	.
4B	_	.	.	.	.	.	.	.	.
=14	=14	=14	=14	=14	=14	=14	=14	=14	=14
8A	doors	1r	.	1Am	.	voice	B	23.843	A:min
4G	_	.	.	.	.	.	.	.	.
8G	with	.	.	.	.	.	.	.	.
8F#	just	.	.	.	.	.	.	.	.
8G	a	.	.	.	.	.	.	.	.
8A	_	.	.	.	.	.	.	.	.
[8A	smile	.	.	.	.	.	C	.	.
=15	=15	=15	=15	=15	=15	=15	=15	=15	=15
4A]	_	1r	.	1DMm	.	voice	.	25.674	D:7
4r	.	.	.	.	.	.	.	.	.
2r	.	.	.	.	.	.	.	.	.
=16	=16	=16	=16	=16	=16	=16	=16	=16	=16
2.r	.	1r	.	1DMm	.	voice	.	27.505	D:7
8r	.	.	.	.	.	.	.	.	.
8G	A	.	.	.	.	.	.	.	.
=17	=17	=17	=17	=17	=17	=17	=17	=17	=17
8B	rich	1r	.	1GM	newline	voice	.	29.336	G:maj
4B	old	.	.	.	.	.	.	.	.
4B	man	.	.	.	.	.	.	.	.
4.r	.	.	.	.	.	.	.	.	.
=18	=18	=18	=18	=18	=18	=18	=18	=18	=18
8B	She	1r	.	1GMM	.	voice	A	31.148	G:maj7
4.B	won't	.	.	.	.	.	.	.	.
4B	have	.	.	.	.	.	.	.	.
8A	to	.	.	.	.	.	.	.	.
8A	wo-	.	.	.	.	.	(B	.	.
=19	=19	=19	=19	=19	=19	=19	=19	=19	=19
8G	_	1r	.	1CM	.	voice	.	32.961	C:maj
4.G	-rry	.	.	.	.	.	a)	.	.
2r	.	.	.	.	.	.	.	.	.
=20	=20	=20	=20	=20	=20	=20	=20	=20	=20
2.r	.	1r	.	1CM	.	voice	.	34.773	C:maj
8r	.	.	.	.	.	.	.	.	.
8E	She'll	.	.	.	.	.	A	.	.
=21	=21	=21	=21	=21	=21	=21	=21	=21	=21
8A	dress	1r	.	1Am	newline	voice	.	36.586	A:min
4.A	up	.	.	.	.	.	.	.	.
4A	all	.	.	.	.	.	.	.	.
8B	in	.	.	.	.	.	.	.	.
16B	lace	.	.	.	.	.	.	.	.
[16G	_	.	.	.	.	.	.	.	.
=22	=22	=22	=22	=22	=22	=22	=22	=22	=22
8G]	_	1r	.	1CM	.	voice	.	38.395	C:maj
8r	.	.	.	.	.	.	.	.	.
8r	.	.	.	.	.	.	.	.	.
8E	and	.	.	.	.	.	.	.	.
8E	go	.	.	.	.	.	.	.	.
4G	in	.	.	.	.	.	.	.	.
8A	style	.	.	.	.	.	C	.	.
=23	=23	=23	=23	=23	=23	=23	=23	=23	=23
2.G	_	1r	.	1GM	.	voice	.	40.204	G:maj
4r	.	.	.	.	.	.	.	.	.
=24	=24	=24	=24	=24	=24	=24	=24	=24	=24
1r	.	1r	.	1GM	.	voice	.	42.013	G:maj
=25	=25	=25	=25	=25	=25	=25	=25	=25	=25
*>Letter>B	*>Letter>B	*>Letter>B	*>Letter>B	*>Letter>B	*>Letter>B	*>Letter>B	*>Letter>B	*>Letter>B	*>Letter>B
*>Label>Verse	*>Label>Verse	*>Label>Verse	*>Label>Verse	*>Label>Verse	*>Label>Verse	*>Label>Verse	*>Label>Verse	*>Label>Verse	*>Label>Verse
8B	Late	1r	.	1GM	newline	voice	.	43.822	G:maj
4B	at	.	.	.	.	.	.	.	.
4B	night	.	.	.	.	.	C	.	.
8r	.	.	.	.	.	.	.	.	.
8r	.	.	.	.	.	.	.	.	.
8G	a	.	.	.	.	.	.	.	.
=26	=26	=26	=26	=26	=26	=26	=26	=26	=26
8B	big	1r	.	1GMM	.	voice	.	45.627	G:maj7
4B	old	.	.	.	.	.	.	.	.
4B	house	.	.	.	.	.	.	.	.
4d	gets	.	.	.	.	.	.	.	.
16B	lone-	.	.	.	.	.	.	.	.
16A	_	.	.	.	.	.	.	.	.
=27	=27	=27	=27	=27	=27	=27	=27	=27	=27
8G	_	1r	.	1CM	.	voice	.	47.432	C:maj
4.G	-ly	.	.	.	.	.	a	.	.
2r	.	.	.	.	.	.	.	.	.
=28	=28	=28	=28	=28	=28	=28	=28	=28	=28
2.r	.	1r	.	1CM	.	voice	.	49.237	C:maj
8E	I	.	.	.	.	.	.	.	.
8G	guess	.	.	.	.	.	.	.	.
=29	=29	=29	=29	=29	=29	=29	=29	=29	=29
8A	ev-	1r	.	1Am	newline	voice	.	51.043	A:min
4A	-ery	.	.	.	.	.	a	.	.
2A	form	.	.	.	.	.	.	.	.
8B	of	.	.	.	.	.	.	.	.
=30	=30	=30	=30	=30	=30	=30	=30	=30	=30
8A	re-	1r	.	1Am	.	voice	.	52.853	A:min
4.G	-fuge	.	.	.	.	.	.	.	.
8F#	has	.	.	.	.	.	.	.	.
4G	it's	.	.	.	.	.	.	.	.
[8A	price	.	.	.	.	.	C	.	.
=31	=31	=31	=31	=31	=31	=31	=31	=31	=31
8A]	_	1r	.	1DMm	.	voice	.	54.663	D:7
8B	_	.	.	.	.	.	.	.	.
4r	.	.	.	.	.	.	.	.	.
2r	.	.	.	.	.	.	.	.	.
=32	=32	=32	=32	=32	=32	=32	=32	=32	=32
2.r	.	1r	.	1DMm	.	voice	.	56.473	D:7
8G	And	.	.	.	.	.	.	.	.
8G	it	.	.	.	.	.	.	.	.
=33	=33	=33	=33	=33	=33	=33	=33	=33	=33
8B	breaks	1r	.	1GM	newline	voice	.	58.283	G:maj
4B	her	.	.	.	.	.	.	.	.
4B	heart	.	.	.	.	.	.	.	.
8r	.	.	.	.	.	.	.	.	.
8r	.	.	.	.	.	.	.	.	.
8G	to	.	.	.	.	.	.	.	.
=34	=34	=34	=34	=34	=34	=34	=34	=34	=34
8B	think	1r	.	1GMM	.	voice	A	60.107	G:maj7
4B	her	.	.	.	.	.	b	.	.
4.d	love	.	.	.	.	.	.	.	.
8B	is	.	.	.	.	.	.	.	.
16B	on-	.	.	.	.	.	.	.	.
16A	_	.	.	.	.	.	.	.	.
=35	=35	=35	=35	=35	=35	=35	=35	=35	=35
8G	_	1r	.	1CM	.	voice	.	61.932	C:maj
4.G	-ly	.	.	.	.	.	a	.	.
2r	.	.	.	.	.	.	.	.	.
=36	=36	=36	=36	=36	=36	=36	=36	=36	=36
2.r	.	1r	.	1CM	.	voice	.	63.756	C:maj
8E	gi-	.	.	.	.	.	.	.	.
8G	-ven	.	.	.	.	.	.	.	.
=37	=37	=37	=37	=37	=37	=37	=37	=37	=37
8A	to	1r	.	1Am	newline	voice	.	65.58	A:min
4A	a	.	.	.	.	.	.	.	.
4.A	man	.	.	.	.	.	D	.	.
8B	with	.	.	.	.	.	.	.	.
8A	hands	.	.	.	.	.	D	.	.
=38	=38	=38	=38	=38	=38	=38	=38	=38	=38
4.G	_	1r	.	1CM	.	voice	.	67.397	C:maj
8G	as	.	.	.	.	.	.	.	.
4E	cold	.	.	.	.	.	.	.	.
8G	as	.	.	.	.	.	.	.	.
[8G	ice	.	.	.	.	.	C	.	.
=39	=39	=39	=39	=39	=39	=39	=39	=39	=39
4G]	_	1r	.	1GM	.	voice	.	69.214	G:maj
4r	.	.	.	.	.	.	.	.	.
2r	.	.	.	.	.	.	.	.	.
=40	=40	=40	=40	=40	=40	=40	=40	=40	=40
2r	.	2r	.	2CM	.	voice	.	71.03	C:maj
4r	.	4r	.	2DMm	.	voice	.	71.939	D:7
8G	So	8B	So	.	.	.	.	.	.
8G	she	8B	she	.	.	.	.	.	.
=41	=41	=41	=41	=41	=41	=41	=41	=41	=41
*>Letter>B	*>Letter>B	*>Letter>B	*>Letter>B	*>Letter>B	*>Letter>B	*>Letter>B	*>Letter>B	*>Letter>B	*>Letter>B
*>Label>Verse	*>Label>Verse	*>Label>Verse	*>Label>Verse	*>Label>Verse	*>Label>Verse	*>Label>Verse	*>Label>Verse	*>Label>Verse	*>Label>Verse
8B	tells	8d	tells	1GM	newline	voice	.	72.847	G:maj
4.B	him	4.d	him	.	.	.	.	.	.
8B	she	8d	she	.	.	.	.	.	.
4.B	must	4.d	must	.	.	.	.	.	.
=42	=42	=42	=42	=42	=42	=42	=42	=42	=42
8B	go	8d	go	1GMM	.	voice	.	74.651	G:maj7
4.B	out	4.d	out	.	.	.	.	.	.
4B	for	4e	for	.	.	.	.	.	.
8A	the	8d	the	.	.	.	.	.	.
16B	eve-	16d	eve-	.	.	.	(A	.	.
16A	_	16c	_	.	.	.	.	.	.
=43	=43	=43	=43	=43	=43	=43	=43	=43	=43
8G	_	8B	_	1CM	.	voice	.	76.455	C:maj
4.G	-nin'	4.B	-nin'	.	.	.	a)	.	.
2r	.	2r	.	.	.	.	.	.	.
=44	=44	=44	=44	=44	=44	=44	=44	=44	=44
2r	.	2r	.	1CM	.	voice	.	78.259	C:maj
4.r	.	4.r	.	.	.	.	.	.	.
8G	to	8B	to	.	.	.	.	.	.
=45	=45	=45	=45	=45	=45	=45	=45	=45	=45
8A	com-	8c	com-	1Am	newline	voice	.	80.063	A:min
4.A	-fort	4.c	-fort	.	.	.	.	.	.
8A	an	8c	an	.	.	.	.	.	.
4A	old	4c	old	.	.	.	.	.	.
8G	friend	[8c	friend	.	.	.	.	.	.
=46	=46	=46	=46	=46	=46	=46	=46	=46	=46
4A	_	4c]	_	1Am	.	voice	.	81.886	A:min
4G	who's	4r	.	.	.	.	.	.	.
8F#	feel-	8B	feel-	.	.	.	(A	.	.
4G	-in'	4c	-in'	.	.	.	a)	.	.
[8A	down	[8c	down	.	.	.	E	.	.
=47	=47	=47	=47	=47	=47	=47	=47	=47	=47
4A]	_	4c]	_	1DMm	.	voice	.	83.709	D:7
4r	.	4r	.	.	.	.	.	.	.
2r	.	2r	.	.	.	.	.	.	.
=48	=48	=48	=48	=48	=48	=48	=48	=48	=48
2.r	.	2.r	.	1DMm	.	voice	.	85.532	D:7
8r	.	8r	.	.	.	.	.	.	.
8G	But	8B	But	.	.	.	.	.	.
=49	=49	=49	=49	=49	=49	=49	=49	=49	=49
8B	he	8d	he	1GM	newline	voice	.	87.355	G:maj
4B	knows	4d	knows	.	.	.	.	.	.
4B	where	4d	where	.	.	.	.	.	.
4B	she's	4d	she's	.	.	.	.	.	.
[8e	go-	[8g	go-	.	.	.	.	.	.
=50	=50	=50	=50	=50	=50	=50	=50	=50	=50
4e]	_	4g]	_	1GMM	.	voice	.	89.173	G:maj7
4d	-in'	4f#	-in'	.	.	.	.	.	.
4B	as	4d	as	.	.	.	.	.	.
4A	she's	4d	she's	.	.	.	.	.	.
=51	=51	=51	=51	=51	=51	=51	=51	=51	=51
16B	lea-	16d	lea-	1CM	.	voice	(A	90.992	C:maj
16A	_	16c	_	.	.	.	.	.	.
8G	_	8B	_	.	.	.	.	.	.
4G	-vin'	4B	-vin'	.	.	.	a)	.	.
2r	.	2r	.	.	.	.	.	.	.
=52	=52	=52	=52	=52	=52	=52	=52	=52	=52
2.r	.	2.r	.	1CM	.	voice	.	92.811	C:maj
8B	She	8e	She	.	.	.	.	.	.
8G	is	8d	is	.	.	.	.	.	.
=53	=53	=53	=53	=53	=53	=53	=53	=53	=53
8A	head-	8c	head-	1Am	newline	voice	.	94.63	A:min
4A	-ed	4c	-ed	.	.	.	.	.	.
2A	for	2c	for	.	.	.	.	.	.
8B	the	8d	the	.	.	.	.	.	.
=54	=54	=54	=54	=54	=54	=54	=54	=54	=54
8A	cheat-	8c	cheat-	1CM	.	voice	(A	96.452	C:maj
4.G	-in'	4.B	-in'	.	.	.	a)	.	.
4E	side	4G	side	.	.	.	.	.	.
8G	of	8B	of	.	.	.	.	.	.
[8G	town	[8B	town	.	.	.	E	.	.
=55	=55	=55	=55	=55	=55	=55	=55	=55	=55
4G]	_	4B]	_	1GM	.	voice	.	98.274	G:maj
4r	.	4r	.	.	.	.	.	.	.
2r	.	2r	.	.	.	.	.	.	.
=56	=56	=56	=56	=56	=56	=56	=56	=56	=56
2r	.	2r	.	1GM	.	voice	.	100.096	G:maj
8B	You	8d	You	.	.	.	.	.	.
4.d	can't	4.g	can't	.	.	.	.	.	.
=57	=57	=57	=57	=57	=57	=57	=57	=57	=57
*>Letter>C	*>Letter>C	*>Letter>C	*>Letter>C	*>Letter>C	*>Letter>C	*>Letter>C	*>Letter>C	*>Letter>C	*>Letter>C
*>Label>Chorus	*>Label>Chorus	*>Label>Chorus	*>Label>Chorus	*>Label>Chorus	*>Label>Chorus	*>Label>Chorus	*>Label>Chorus	*>Label>Chorus	*>Label>Chorus
[1d	hide	[1g	hide	1GM	newline	voice	C	101.918	G:maj
=58	=58	=58	=58	=58	=58	=58	=58	=58	=58
4d]	_	4g]	_	1CM	.	voice	.	103.759	C:maj/5
4d	your	4g	your	.	.	.	.	.	.
16B	ly-	16d	ly-	.	.	.	(C	.	.
16A	_	16c	_	.	.	.	.	.	.
8G	_	8B	_	.	.	.	.	.	.
8G	-in'	8B	-in'	.	.	.	c)	.	.
[8G	eyes	[8B	eyes	.	.	.	C	.	.
=59	=59	=59	=59	=59	=59	=59	=59	=59	=59
2.G]	_	2.B]	_	1GM	.	voice	.	105.6	G:maj
4r	.	4r	.	.	.	.	.	.	.
=60	=60	=60	=60	=60	=60	=60	=60	=60	=60
2r	.	2r	.	1GM	.	voice	.	107.441	G:maj
8B	And	8d	And	.	.	.	.	.	.
4.d	your	4.f#	your	.	.	.	.	.	.
=61	=61	=61	=61	=61	=61	=61	=61	=61	=61
[1d	smile	1g	smile	1Em	newline	voice	C	109.282	E:min
=62	=62	=62	=62	=62	=62	=62	=62	=62	=62
4d]	_	4f#	_	1Bm	.	voice	.	111.084	B:min
8d	is	8f#	is	.	.	.	.	.	.
8d	a	8f#	a	.	.	.	.	.	.
16B	thin	16d	thin	.	.	.	.	.	.
16A	_	16c	_	.	.	.	.	.	.
8G	_	8B	_	.	.	.	.	.	.
8G	dis-	8B	dis-	.	.	.	.	.	.
8A	_	8c	_	.	.	.	.	.	.
=63	=63	=63	=63	=63	=63	=63	=63	=63	=63
1A	-guise	1c	-guise	1Am	.	voice	C	112.885	A:min
=64	=64	=64	=64	=64	=64	=64	=64	=64	=64
4r	.	4r	.	1DMm	.	voice	.	114.686	D:7
8r	.	8r	.	.	.	.	.	.	.
8G	I	8d	I	.	.	.	.	.	.
4B	thought	4d	thought	.	.	.	.	.	.
4d	by	4g	by	.	.	.	.	.	.
=65	=65	=65	=65	=65	=65	=65	=65	=65	=65
[1d	now	[1g	now	1GM	newline	voice	.	116.487	G:maj
=66	=66	=66	=66	=66	=66	=66	=66	=66	=66
4d]	_	4g]	_	1GMm	.	voice	.	118.3	G:7
4d	you'd	4g	you'd	.	.	.	.	.	.
16B	re-	16d	re-	.	.	.	.	.	.
16A	_	16c	_	.	.	.	.	.	.
8G	_	8B	_	.	.	.	.	.	.
8G	-a-	8B	-a-	.	.	.	.	.	.
[8G	-lize	[8c	-lize	.	.	.	C	.	.
=67	=67	=67	=67	=67	=67	=67	=67	=67	=67
1G]	_	1c]	_	1CM	.	voice	.	120.113	C:maj
=68	=68	=68	=68	=68	=68	=68	=68	=68	=68
2A	_	2c#	_	1AM	.	voice	.	121.926	A:maj
4.r	.	4.r	.	.	.	.	.	.	.
8G	there	8c	there	.	.	.	.	.	.
=69	=69	=69	=69	=69	=69	=69	=69	=69	=69
8A	ain't	8c	ain't	1Am	newline	voice	.	123.74	A:min
4A	no	4c	no	.	.	.	.	.	.
4.A	way	4.c	way	.	.	.	.	.	.
8B	to	8d	to	.	.	.	.	.	.
8A	hide	8c	hide	.	.	.	C	.	.
=70	=70	=70	=70	=70	=70	=70	=70	=70	=70
4G	_	4c	_	1DMm	.	voice	.	125.596	D:7
4G	your	4c	your	.	.	.	.	.	.
4E	ly-	4c	ly-	.	.	.	(C	.	.
8G	-in'	8c	-in'	.	.	.	c)	.	.
[8G	eyes	8c	eyes	.	.	.	C	.	.
=71	=71	=71	=71	=71	=71	=71	=71	=71	=71
*>Letter>A	*>Letter>A	*>Letter>A	*>Letter>A	*>Letter>A	*>Letter>A	*>Letter>A	*>Letter>A	*>Letter>A	*>Letter>A
*>Label>Interlude	*>Label>Interlude	*>Label>Interlude	*>Label>Interlude	*>Label>Interlude	*>Label>Interlude	*>Label>Interlude	*>Label>Interlude	*>Label>Interlude	*>Label>Interlude
1G]	_	1B	_	1GM	->newline	guitar	.	127.452	G:maj
=72	=72	=72	=72	=72	=72	=72	=72	=72	=72
1r	.	1r	.	1GMM	.	guitar	.	129.254	G:maj7
=73	=73	=73	=73	=73	=73	=73	=73	=73	=73
1r	.	1r	.	1CM	.	guitar	.	131.055	C:maj
=74	=74	=74	=74	=74	=74	=74	=74	=74	=74
1r	.	1r	.	1CM	.	guitar	.	132.856	C:maj
=75	=75	=75	=75	=75	=75	=75	=75	=75	=75
1r	.	1r	.	1Am	newline	guitar	.	134.657	A:min
=76	=76	=76	=76	=76	=76	=76	=76	=76	=76
1r	.	1r	.	1DMm	.	guitar	.	136.458	D:7
=77	=77	=77	=77	=77	=77	=77	=77	=77	=77
1r	.	1r	.	1GM	.	guitar	.	138.259	G:maj
=78	=78	=78	=78	=78	=78	=78	=78	=78	=78
2.r	.	1r	.	1GM	.	guitar	.	140.06	G:maj
8A	On	.	.	.	.	.	.	.	.
8G	the	.	.	.	.	.	.	.	.
=79	=79	=79	=79	=79	=79	=79	=79	=79	=79
*>Letter>B	*>Letter>B	*>Letter>B	*>Letter>B	*>Letter>B	*>Letter>B	*>Letter>B	*>Letter>B	*>Letter>B	*>Letter>B
*>Label>Verse	*>Label>Verse	*>Label>Verse	*>Label>Verse	*>Label>Verse	*>Label>Verse	*>Label>Verse	*>Label>Verse	*>Label>Verse	*>Label>Verse
8B	o-	1r	.	1GM	newline	voice	.	141.861	G:maj
4.B	-ther	.	.	.	.	.	.	.	.
4B	side	.	.	.	.	.	.	.	.
8A	of	.	.	.	.	.	.	.	.
[8B	town	.	.	.	.	.	.	.	.
=80	=80	=80	=80	=80	=80	=80	=80	=80	=80
4B]	_	1r	.	1GMM	.	voice	.	143.664	G:maj7
8A	a	.	.	.	.	.	.	.	.
4.B	boy	.	.	.	.	.	.	.	.
8B	is	.	.	.	.	.	.	.	.
8A	wai-	.	.	.	.	.	(F	.	.
=81	=81	=81	=81	=81	=81	=81	=81	=81	=81
8G	_	1r	.	1CM	.	voice	.	145.467	C:maj
4.G	-ting	.	.	.	.	.	f)	.	.
2r	.	.	.	.	.	.	.	.	.
=82	=82	=82	=82	=82	=82	=82	=82	=82	=82
2r	.	1r	.	1CM	.	voice	.	147.269	C:maj
4.r	.	.	.	.	.	.	.	.	.
8G	with	.	.	.	.	.	.	.	.
=83	=83	=83	=83	=83	=83	=83	=83	=83	=83
4A	fie-	1r	.	1Am	newline	voice	.	149.072	A:min
8A	-ry	.	.	.	.	.	.	.	.
4.A	eyes	.	.	.	.	.	.	.	.
8A	and	.	.	.	.	.	.	.	.
16B	dreams	.	.	.	.	.	.	.	.
16A	_	.	.	.	.	.	.	.	.
=84	=84	=84	=84	=84	=84	=84	=84	=84	=84
4.G	_	1r	.	1Am	.	voice	.	150.878	A:min
4e	no	.	.	.	.	.	.	.	.
4d	one	.	.	.	.	.	.	.	.
8B	could	.	.	.	.	.	.	.	.
=85	=85	=85	=85	=85	=85	=85	=85	=85	=85
8d	steal	1r	.	1DMm	.	voice	A	152.684	D:7
8B	_	.	.	.	.	.	.	.	.
8B	_	.	.	.	.	.	.	.	.
4.A	_	.	.	.	.	.	.	.	.
4r	.	.	.	.	.	.	.	.	.
=86	=86	=86	=86	=86	=86	=86	=86	=86	=86
2.r	.	1r	.	1DMm	.	voice	.	154.49	D:7
8r	.	.	.	.	.	.	.	.	.
8G	She	.	.	.	.	.	.	.	.
=87	=87	=87	=87	=87	=87	=87	=87	=87	=87
4.B	drives	1r	.	1GM	newline	voice	.	156.296	G:maj
4.B	on	.	.	.	.	.	.	.	.
8B	through	.	.	.	.	.	.	.	.
8A	the	.	.	.	.	.	.	.	.
=88	=88	=88	=88	=88	=88	=88	=88	=88	=88
4B	night	1r	.	1GMM	.	voice	.	158.102	G:maj7
8r	.	.	.	.	.	.	.	.	.
4B	an-	.	.	.	.	.	.	.	.
8B	-ti-	.	.	.	.	.	.	.	.
8A	-ci-	.	.	.	.	.	.	.	.
16B	-pat-	.	.	.	.	.	(F	.	.
16A	_	.	.	.	.	.	.	.	.
=89	=89	=89	=89	=89	=89	=89	=89	=89	=89
4G	_	1r	.	1CM	.	voice	.	159.908	C:maj
2G	-ing	.	.	.	.	.	f)	.	.
4r	.	.	.	.	.	.	.	.	.
=90	=90	=90	=90	=90	=90	=90	=90	=90	=90
2.r	.	1r	.	1CM	.	voice	.	161.714	C:maj
8E	'cause	.	.	.	.	.	.	.	.
8G	he	.	.	.	.	.	.	.	.
=91	=91	=91	=91	=91	=91	=91	=91	=91	=91
8A	makes	1r	.	1Am	newline	voice	.	163.52	A:min
4A	her	.	.	.	.	.	.	.	.
8A	feel	.	.	.	.	.	A	.	.
16B	_	.	.	.	.	.	.	.	.
16A	_	.	.	.	.	.	.	.	.
4G	_	.	.	.	.	.	.	.	.
8G	the	.	.	.	.	.	.	.	.
=92	=92	=92	=92	=92	=92	=92	=92	=92	=92
8A	way	1r	.	1CM	.	voice	F	165.323	C:maj
8G	_	.	.	.	.	.	.	.	.
8r	.	.	.	.	.	.	.	.	.
8G	she	.	.	.	.	.	.	.	.
4E	used	.	.	.	.	.	.	.	.
8G	to	.	.	.	.	.	.	.	.
[8A	feel	.	.	.	.	.	A	.	.
=93	=93	=93	=93	=93	=93	=93	=93	=93	=93
8A]	_	1r	.	1GM	.	voice	.	167.125	G:maj
4.G	_	.	.	.	.	.	.	.	.
2r	.	.	.	.	.	.	.	.	.
=94	=94	=94	=94	=94	=94	=94	=94	=94	=94
2r	.	1r	.	2CM	.	voice	.	168.928	C:maj
4.r	.	.	.	2DMm	.	voice	.	169.829	D:7
8G	She	.	.	.	.	.	.	.	.
=95	=95	=95	=95	=95	=95	=95	=95	=95	=95
*>Letter>B	*>Letter>B	*>Letter>B	*>Letter>B	*>Letter>B	*>Letter>B	*>Letter>B	*>Letter>B	*>Letter>B	*>Letter>B
*>Label>Verse	*>Label>Verse	*>Label>Verse	*>Label>Verse	*>Label>Verse	*>Label>Verse	*>Label>Verse	*>Label>Verse	*>Label>Verse	*>Label>Verse
8B	rush-	1r	.	1GM	newline	voice	.	170.73	G:maj
2B	-es	.	.	.	.	.	.	.	.
8B	to	.	.	.	.	.	.	.	.
8A	his	.	.	.	.	.	.	.	.
[8B	arms	.	.	.	.	.	.	.	.
=96	=96	=96	=96	=96	=96	=96	=96	=96	=96
4.B]	_	1r	.	1GMM	.	voice	.	172.555	G:maj7
4B	They	.	.	.	.	.	.	.	.
4d	fall	.	.	.	.	.	.	.	.
8B	to-	.	.	.	.	.	.	.	.
=97	=97	=97	=97	=97	=97	=97	=97	=97	=97
16B	-ge-	1r	.	1CM	.	voice	.	174.379	C:maj
16A	_	.	.	.	.	.	.	.	.
8G	_	.	.	.	.	.	.	.	.
4G	-ther	.	.	.	.	.	b	.	.
2r	.	.	.	.	.	.	.	.	.
=98	=98	=98	=98	=98	=98	=98	=98	=98	=98
2r	.	1r	.	1CM	.	voice	.	176.203	C:maj
4.r	.	.	.	.	.	.	.	.	.
8G	She	.	.	.	.	.	.	.	.
=99	=99	=99	=99	=99	=99	=99	=99	=99	=99
8A	whis-	1r	.	1Am	newline	voice	.	178.027	A:min
2A	-pers	.	.	.	.	.	b	.	.
8A	that	.	.	.	.	.	.	.	.
8A	it's	.	.	.	.	.	.	.	.
[8B	on-	.	.	.	.	.	.	.	.
=100	=100	=100	=100	=100	=100	=100	=100	=100	=100
8B]	_	1r	.	1Am	.	voice	.	179.829	A:min
4.B	-ly	.	.	.	.	.	a	.	.
8r	.	.	.	.	.	.	.	.	.
4B	for	.	.	.	.	.	.	.	.
8B	a	.	.	.	.	.	.	.	.
=101	=101	=101	=101	=101	=101	=101	=101	=101	=101
8B	while	1r	.	1DMm	.	voice	C	181.63	D:7
4.A	_	.	.	.	.	.	.	.	.
2r	.	.	.	.	.	.	.	.	.
=102	=102	=102	=102	=102	=102	=102	=102	=102	=102
2.r	.	2.r	.	1DMm	.	voice	.	183.431	D:7
8r	.	8r	.	.	.	.	.	.	.
8G	She	8B	She	.	.	.	.	.	.
=103	=103	=103	=103	=103	=103	=103	=103	=103	=103
4B	swears	4d	swears	1GM	newline	voice	.	185.232	G:maj
8B	that	8d	that	.	.	.	.	.	.
4.B	soon	4.d	soon	.	.	.	.	.	.
8B	she'll	8d	she'll	.	.	.	.	.	.
8A	be	8c	be	.	.	.	.	.	.
=104	=104	=104	=104	=104	=104	=104	=104	=104	=104
8B	com-	8d	com-	1GMM	.	voice	.	187.038	G:maj7
4B	-ing	4d	-ing	.	.	.	.	.	.
4.d	back	4.g	back	.	.	.	.	.	.
8B	for-	8d	for-	.	.	.	.	.	.
16B	-e-	16d	-e-	.	.	.	.	.	.
16A	_	16c	_	.	.	.	.	.	.
=105	=105	=105	=105	=105	=105	=105	=105	=105	=105
4G	_	4B	_	1CM	.	voice	.	188.844	C:maj
4G	-ver	4B	-ver	.	.	.	b	.	.
2r	.	2r	.	.	.	.	.	.	.
=106	=106	=106	=106	=106	=106	=106	=106	=106	=106
2.r	.	2.r	.	1CM	.	voice	.	190.65	C:maj
8r	.	8r	.	.	.	.	.	.	.
8G	She	8B	She	.	.	.	.	.	.
=107	=107	=107	=107	=107	=107	=107	=107	=107	=107
4A	pulls	4c	pulls	1Am	newline	voice	.	192.457	A:min
8A	a-	8c	a-	.	.	.	.	.	.
8A	-way	8c	-way	.	.	.	.	.	.
4B	_	4d	_	.	.	.	.	.	.
8r	.	8r	.	.	.	.	.	.	.
8G	and	8B	and	.	.	.	.	.	.
=108	=108	=108	=108	=108	=108	=108	=108	=108	=108
4A	leaves	4c	leaves	1CM	.	voice	A	194.272	C:maj
4G	him	4B	him	.	.	.	.	.	.
8E	with	8G	with	.	.	.	.	.	.
8G	a	8B	a	.	.	.	.	.	.
4A	smile	4c	smile	.	.	.	C	.	.
=109	=109	=109	=109	=109	=109	=109	=109	=109	=109
4G	_	4B	_	1GM	.	voice	.	196.087	G:maj
4r	.	4r	.	.	.	.	.	.	.
2r	.	2r	.	.	.	.	.	.	.
=110	=110	=110	=110	=110	=110	=110	=110	=110	=110
2r	.	2r	.	1GM	.	voice	.	197.902	G:maj
8B	You	8d	You	.	.	.	.	.	.
4.d	can't	4.g	can't	.	.	.	.	.	.
=111	=111	=111	=111	=111	=111	=111	=111	=111	=111
*>Letter>C	*>Letter>C	*>Letter>C	*>Letter>C	*>Letter>C	*>Letter>C	*>Letter>C	*>Letter>C	*>Letter>C	*>Letter>C
*>Label>Chorus	*>Label>Chorus	*>Label>Chorus	*>Label>Chorus	*>Label>Chorus	*>Label>Chorus	*>Label>Chorus	*>Label>Chorus	*>Label>Chorus	*>Label>Chorus
[1d	hide	[1g	hide	1GM	newline	voice	C	199.717	G:maj
=112	=112	=112	=112	=112	=112	=112	=112	=112	=112
4d]	_	4g]	_	1CM	.	voice	.	201.549	C:maj/5
4d	your	4g	your	.	.	.	.	.	.
16B	ly-	16d	ly-	.	.	.	(C	.	.
16A	_	16c	_	.	.	.	.	.	.
8G	_	8B	_	.	.	.	.	.	.
8G	-in'	8B	-in'	.	.	.	c)	.	.
[8G	eyes	[8B	eyes	.	.	.	C	.	.
=113	=113	=113	=113	=113	=113	=113	=113	=113	=113
2.G]	_	2.B]	_	1GM	.	voice	.	203.38	G:maj
4r	.	4r	.	.	.	.	.	.	.
=114	=114	=114	=114	=114	=114	=114	=114	=114	=114
2r	.	2r	.	1GM	.	voice	.	205.211	G:maj
8B	And	8d	And	.	.	.	.	.	.
4.d	your	4.f#	your	.	.	.	.	.	.
=115	=115	=115	=115	=115	=115	=115	=115	=115	=115
[2e	smile	[2g	smile	1Em	newline	voice	C	207.043	E:min
8e]	_	8g]	_	.	.	.	.	.	.
8f#	_	8a	_	.	.	.	.	.	.
8e	_	8g	_	.	.	.	.	.	.
[8d	_	[8f#	_	.	.	.	.	.	.
=116	=116	=116	=116	=116	=116	=116	=116	=116	=116
4d]	_	4f#]	_	1Bm	.	voice	.	208.84	B:min
8d	is	8f#	is	.	.	.	.	.	.
8d	a	8f#	a	.	.	.	.	.	.
16B	thin	16d	thin	.	.	.	.	.	.
16A	_	16c	_	.	.	.	.	.	.
8G	_	8B	_	.	.	.	.	.	.
8G	dis-	8B	dis-	.	.	.	.	.	.
8A	_	8c	_	.	.	.	.	.	.
=117	=117	=117	=117	=117	=117	=117	=117	=117	=117
1A	-guise	1c	-guise	1Am	.	voice	C	210.636	A:min
=118	=118	=118	=118	=118	=118	=118	=118	=118	=118
2r	.	2r	.	1DMm	.	voice	.	212.433	D:7
4B	thought	4d	thought	.	.	.	.	.	.
4d	by	4g	by	.	.	.	.	.	.
=119	=119	=119	=119	=119	=119	=119	=119	=119	=119
[1d	now	[1g	now	1GM	newline	voice	.	214.23	G:maj
=120	=120	=120	=120	=120	=120	=120	=120	=120	=120
4d]	_	4g]	_	1GMm	.	voice	.	216.052	G:7
4d	you'd	4g	you'd	.	.	.	.	.	.
16B	re-	16d	re-	.	.	.	.	.	.
16A	_	16c	_	.	.	.	.	.	.
8G	_	8B	_	.	.	.	.	.	.
8G	-a-	8B	-a-	.	.	.	.	.	.
[8G	-lize	[8c	-lize	.	.	.	C	.	.
=121	=121	=121	=121	=121	=121	=121	=121	=121	=121
1G]	_	1c]	_	1CM	.	voice	.	217.874	C:maj
=122	=122	=122	=122	=122	=122	=122	=122	=122	=122
2A	_	2c#	_	1AM	.	voice	.	219.695	A:maj
4.r	.	4.r	.	.	.	.	.	.	.
8G	there	8c	there	.	.	.	.	.	.
=123	=123	=123	=123	=123	=123	=123	=123	=123	=123
8A	ain't	8c	ain't	1Am	newline	voice	.	221.517	A:min
4A	no	4c	no	.	.	.	.	.	.
4.A	way	4.c	way	.	.	.	.	.	.
8B	to	8d	to	.	.	.	.	.	.
8A	hide	8c	hide	.	.	.	C	.	.
=124	=124	=124	=124	=124	=124	=124	=124	=124	=124
4G	_	4c	_	1DMm	.	voice	.	223.318	D:7
4G	your	4c	your	.	.	.	.	.	.
4E	ly-	4c	ly-	.	.	.	(C	.	.
8G	-in'	8c	-in'	.	.	.	c)	.	.
[8G	eyes	8c	eyes	.	.	.	C	.	.
=125	=125	=125	=125	=125	=125	=125	=125	=125	=125
*>Letter>A	*>Letter>A	*>Letter>A	*>Letter>A	*>Letter>A	*>Letter>A	*>Letter>A	*>Letter>A	*>Letter>A	*>Letter>A
*>Label>Interlude	*>Label>Interlude	*>Label>Interlude	*>Label>Interlude	*>Label>Interlude	*>Label>Interlude	*>Label>Interlude	*>Label>Interlude	*>Label>Interlude	*>Label>Interlude
1G]	_	1B	_	1GM	->newline	guitar	.	225.119	G:maj
=126	=126	=126	=126	=126	=126	=126	=126	=126	=126
1r	.	1r	.	1GMM	.	guitar	.	226.927	G:maj7
=127	=127	=127	=127	=127	=127	=127	=127	=127	=127
1r	.	1r	.	1CM	.	guitar	.	228.734	C:maj
=128	=128	=128	=128	=128	=128	=128	=128	=128	=128
1r	.	1r	.	1CM	.	guitar	.	230.542	C:maj
=129	=129	=129	=129	=129	=129	=129	=129	=129	=129
1r	.	1r	.	1Am	newline	guitar	.	232.35	A:min
=130	=130	=130	=130	=130	=130	=130	=130	=130	=130
1r	.	1r	.	1DMm	.	guitar	.	234.143	D:7
=131	=131	=131	=131	=131	=131	=131	=131	=131	=131
1r	.	1r	.	1GM	.	guitar	.	235.937	G:maj
=132	=132	=132	=132	=132	=132	=132	=132	=132	=132
1r	.	1r	.	1GM	.	guitar	.	237.73	G:maj
=133	=133	=133	=133	=133	=133	=133	=133	=133	=133
*>Letter>B	*>Letter>B	*>Letter>B	*>Letter>B	*>Letter>B	*>Letter>B	*>Letter>B	*>Letter>B	*>Letter>B	*>Letter>B
*>Label>Verse	*>Label>Verse	*>Label>Verse	*>Label>Verse	*>Label>Verse	*>Label>Verse	*>Label>Verse	*>Label>Verse	*>Label>Verse	*>Label>Verse
8B	She	1r	.	1GM	newline	voice	.	239.523	G:maj
4B	gets	.	.	.	.	.	.	.	.
8B	up	.	.	.	.	.	.	.	.
4.r	.	.	.	.	.	.	.	.	.
8G	and	.	.	.	.	.	.	.	.
=134	=134	=134	=134	=134	=134	=134	=134	=134	=134
4B	pours	1r	.	1GMM	.	voice	.	241.321	G:maj7
8A	her-	.	.	.	.	.	b	.	.
4.B	-self	.	.	.	.	.	.	.	.
8A	a	.	.	.	.	.	.	.	.
8A	strong	.	.	.	.	.	G	.	.
=135	=135	=135	=135	=135	=135	=135	=135	=135	=135
8G	_	1r	.	1CM	.	voice	.	243.119	C:maj
[4.G	one	.	.	.	.	.	.	.	.
4G]	_	.	.	.	.	.	.	.	.
4r	.	.	.	.	.	.	.	.	.
=136	=136	=136	=136	=136	=136	=136	=136	=136	=136
2r	.	1r	.	1CM	.	voice	.	244.917	C:maj
4.r	.	.	.	.	.	.	.	.	.
8G	and	.	.	.	.	.	.	.	.
=137	=137	=137	=137	=137	=137	=137	=137	=137	=137
4A	stares	1r	.	1Am	newline	voice	.	246.715	A:min
4A	out	.	.	.	.	.	.	.	.
8A	at	.	.	.	.	.	.	.	.
8A	the	.	.	.	.	.	.	.	.
[4A	stars	.	.	.	.	.	.	.	.
=138	=138	=138	=138	=138	=138	=138	=138	=138	=138
4.A]	_	1r	.	1Am	.	voice	.	248.506	A:min
8G	up	.	.	.	.	.	.	.	.
8F#	in	.	.	.	.	.	.	.	.
4G	the	.	.	.	.	.	.	.	.
[8A	sky	.	.	.	.	.	C	.	.
=139	=139	=139	=139	=139	=139	=139	=139	=139	=139
2A]	_	1r	.	1DMm	.	voice	.	250.296	D:7
2r	.	.	.	.	.	.	.	.	.
=140	=140	=140	=140	=140	=140	=140	=140	=140	=140
2.r	.	1r	.	1DMm	.	voice	.	252.086	D:7
8r	.	.	.	.	.	.	.	.	.
8G	A-	.	.	.	.	.	.	.	.
=141	=141	=141	=141	=141	=141	=141	=141	=141	=141
8B	-no-	1r	.	1GM	newline	voice	.	253.876	G:maj
4B	-ther	.	.	.	.	.	b	.	.
4B	night	.	.	.	.	.	.	.	.
8r	.	.	.	.	.	.	.	.	.
8r	.	.	.	.	.	.	.	.	.
8B	It's	.	.	.	.	.	.	.	.
=142	=142	=142	=142	=142	=142	=142	=142	=142	=142
4e	go-	1r	.	1GMM	.	voice	.	255.668	G:maj7
8d	-nna	.	.	.	.	.	.	.	.
4.d	be	.	.	.	.	.	.	.	.
8B	a	.	.	.	.	.	.	.	.
16B	long	.	.	.	.	.	G	.	.
16A	_	.	.	.	.	.	.	.	.
=143	=143	=143	=143	=143	=143	=143	=143	=143	=143
4G	_	1r	.	1CM	.	voice	.	257.46	C:maj
2G	one	.	.	.	.	.	.	.	.
4r	.	.	.	.	.	.	.	.	.
=144	=144	=144	=144	=144	=144	=144	=144	=144	=144
2.r	.	1r	.	1CM	.	voice	.	259.252	C:maj
8r	.	.	.	.	.	.	.	.	.
8G	She	.	.	.	.	.	.	.	.
=145	=145	=145	=145	=145	=145	=145	=145	=145	=145
4A	draws	1r	.	1Am	newline	voice	.	261.043	A:min
8A	the	.	.	.	.	.	.	.	.
4.A	shade	.	.	.	.	.	.	.	.
8B	and	.	.	.	.	.	.	.	.
8A	hangs	.	.	.	.	.	.	.	.
=146	=146	=146	=146	=146	=146	=146	=146	=146	=146
4G	_	1r	.	1CM	.	voice	.	262.836	C:maj
4G	her	.	.	.	.	.	b	.	.
4E	head	.	.	.	.	.	.	.	.
8G	to	.	.	.	.	.	.	.	.
[8G	cry	.	.	.	.	.	C	.	.
=147	=147	=147	=147	=147	=147	=147	=147	=147	=147
4G]	_	1r	.	1GM	.	voice	.	264.63	G:maj
4r	.	.	.	.	.	.	.	.	.
2r	.	.	.	.	.	.	.	.	.
=148	=148	=148	=148	=148	=148	=148	=148	=148	=148
2r	.	1r	.	2CM	.	voice	.	266.423	C:maj
4r	.	.	.	2DMm	.	voice	.	267.319	D:7
8r	.	.	.	.	.	.	.	.	.
8G	She	.	.	.	.	.	.	.	.
=149	=149	=149	=149	=149	=149	=149	=149	=149	=149
*>Letter>B	*>Letter>B	*>Letter>B	*>Letter>B	*>Letter>B	*>Letter>B	*>Letter>B	*>Letter>B	*>Letter>B	*>Letter>B
*>Label>Verse	*>Label>Verse	*>Label>Verse	*>Label>Verse	*>Label>Verse	*>Label>Verse	*>Label>Verse	*>Label>Verse	*>Label>Verse	*>Label>Verse
8B	won-	1r	.	1GM	newline	voice	.	268.216	G:maj
[8B	-ders	.	.	.	.	.	b	.	.
2B]	_	.	.	.	.	.	.	.	.
8B	how	.	.	.	.	.	.	.	.
8A	it	.	.	.	.	.	.	.	.
=150	=150	=150	=150	=150	=150	=150	=150	=150	=150
8B	ev-	1r	.	1GMM	.	voice	.	270.023	G:maj7
2B	-er	.	.	.	.	.	b	.	.
4B	got	.	.	.	.	.	.	.	.
8B	this	.	.	.	.	.	.	.	.
=151	=151	=151	=151	=151	=151	=151	=151	=151	=151
16B	cra-	1r	.	1CM	.	voice	(F	271.83	C:maj
16A	_	.	.	.	.	.	.	.	.
4G	_	.	.	.	.	.	.	.	.
4.G	-zy	.	.	.	.	.	f)	.	.
4r	.	.	.	.	.	.	.	.	.
=152	=152	=152	=152	=152	=152	=152	=152	=152	=152
2r	.	1r	.	1CM	.	voice	.	273.637	C:maj
4r	.	.	.	.	.	.	.	.	.
8r	.	.	.	.	.	.	.	.	.
8G	She	.	.	.	.	.	.	.	.
=153	=153	=153	=153	=153	=153	=153	=153	=153	=153
4A	thinks	1r	.	1Am	newline	voice	.	275.445	A:min
8A	a-	.	.	.	.	.	.	.	.
4.A	-bout	.	.	.	.	.	.	.	.
8B	a	.	.	.	.	.	.	.	.
8A	boy	.	.	.	.	.	.	.	.
=154	=154	=154	=154	=154	=154	=154	=154	=154	=154
8G	_	1r	.	1Am	.	voice	.	277.237	A:min
8r	.	.	.	.	.	.	.	.	.
8r	.	.	.	.	.	.	.	.	.
8G	she	.	.	.	.	.	.	.	.
8F#	knew	.	.	.	.	.	.	.	.
8G	in	.	.	.	.	.	.	.	.
8A	_	.	.	.	.	.	.	.	.
[8A	school	.	.	.	.	.	H	.	.
=155	=155	=155	=155	=155	=155	=155	=155	=155	=155
4.A]	_	1r	.	1DMm	.	voice	.	279.029	D:7
16F#	_	.	.	.	.	.	.	.	.
16E	_	.	.	.	.	.	.	.	.
4D	_	.	.	.	.	.	.	.	.
4r	.	.	.	.	.	.	.	.	.
=156	=156	=156	=156	=156	=156	=156	=156	=156	=156
2.r	.	1r	.	1DMm	.	voice	.	280.821	D:7
8r	.	.	.	.	.	.	.	.	.
8G	Did	.	.	.	.	.	.	.	.
=157	=157	=157	=157	=157	=157	=157	=157	=157	=157
8B	she	1r	.	1GM	newline	voice	.	282.613	G:maj
4B	get	.	.	.	.	.	.	.	.
4.B	tired	.	.	.	.	.	.	.	.
8r	.	.	.	.	.	.	.	.	.
8G	or	.	.	.	.	.	.	.	.
=158	=158	=158	=158	=158	=158	=158	=158	=158	=158
8B	did	1r	.	1GMM	.	voice	.	284.41	G:maj7
4.B	she	.	.	.	.	.	.	.	.
8B	just	.	.	.	.	.	.	.	.
4B	get	.	.	.	.	.	.	.	.
16B	la-	.	.	.	.	.	(F	.	.
16A	_	.	.	.	.	.	.	.	.
=159	=159	=159	=159	=159	=159	=159	=159	=159	=159
4G	_	1r	.	1CM	.	voice	.	286.207	C:maj
4G	-zy?	.	.	.	.	.	f)	.	.
2r	.	.	.	.	.	.	.	.	.
=160	=160	=160	=160	=160	=160	=160	=160	=160	=160
2.r	.	1r	.	1CM	.	voice	.	288.004	C:maj
8r	.	.	.	.	.	.	.	.	.
8G	She's	.	.	.	.	.	.	.	.
=161	=161	=161	=161	=161	=161	=161	=161	=161	=161
8A	so	1r	.	1Am	newline	voice	.	289.801	A:min
4A	far	.	.	.	.	.	.	.	.
4.A	gone	.	.	.	.	.	.	.	.
8B	she	.	.	.	.	.	.	.	.
8A	feels	.	.	.	.	.	A	.	.
=162	=162	=162	=162	=162	=162	=162	=162	=162	=162
4G	_	1r	.	1CM	.	voice	.	291.581	C:maj
4G	just	.	.	.	.	.	.	.	.
4E	like	.	.	.	.	.	.	.	.
8G	a	.	.	.	.	.	.	.	.
8G	fool	.	.	.	.	.	H	.	.
=163	=163	=163	=163	=163	=163	=163	=163	=163	=163
8A	_	1r	.	1GM	.	voice	.	293.36	G:maj
4.G	_	.	.	.	.	.	.	.	.
2r	.	.	.	.	.	.	.	.	.
=164	=164	=164	=164	=164	=164	=164	=164	=164	=164
1r	.	1r	.	1GM	.	voice	.	295.14	G:maj
=165	=165	=165	=165	=165	=165	=165	=165	=165	=165
*>Letter>B	*>Letter>B	*>Letter>B	*>Letter>B	*>Letter>B	*>Letter>B	*>Letter>B	*>Letter>B	*>Letter>B	*>Letter>B
*>Label>Verse	*>Label>Verse	*>Label>Verse	*>Label>Verse	*>Label>Verse	*>Label>Verse	*>Label>Verse	*>Label>Verse	*>Label>Verse	*>Label>Verse
8B	My	8d	My	1GM	newline	voice	.	296.92	G:maj
4A	oh	4c	oh	.	.	.	.	.	.
4B	my	4d	my	.	.	.	.	.	.
8r	.	8r	.	.	.	.	.	.	.
8r	.	8r	.	.	.	.	.	.	.
8G	You	8B	You	.	.	.	.	.	.
=166	=166	=166	=166	=166	=166	=166	=166	=166	=166
8B	sure	8d	sure	1GMM	.	voice	.	298.714	G:maj7
4.B	know	4.d	know	.	.	.	.	.	.
8B	how	8d	how	.	.	.	.	.	.
8A	to	8c	to	.	.	.	.	.	.
8G	a-	8B	a-	.	.	.	.	.	.
16B	-range	16d	-range	.	.	.	(F	.	.
16A	_	16c	_	.	.	.	.	.	.
=167	=167	=167	=167	=167	=167	=167	=167	=167	=167
4G	_	4B	_	1CM	.	voice	.	300.508	C:maj
2G	things	2B	things	.	.	.	f)	.	.
4r	.	4r	.	.	.	.	.	.	.
=168	=168	=168	=168	=168	=168	=168	=168	=168	=168
2r	.	2r	.	1CM	.	voice	.	302.302	C:maj
4.r	.	4.r	.	.	.	.	.	.	.
8G	You	8B	You	.	.	.	.	.	.
=169	=169	=169	=169	=169	=169	=169	=169	=169	=169
8A	set	8c	set	1Am	newline	voice	.	304.096	A:min
4.A	it	4.c	it	.	.	.	.	.	.
8A	up	8c	up	.	.	.	.	.	.
4A	so	4c	so	.	.	.	.	.	.
8A	well	8c	well	.	.	.	.	.	.
=170	=170	=170	=170	=170	=170	=170	=170	=170	=170
8G	_	8B	_	1Am	.	voice	.	305.907	A:min
8r	.	8r	.	.	.	.	.	.	.
8r	.	8r	.	.	.	.	.	.	.
4G	so	4B	so	.	.	.	.	.	.
4F#	care-	4A	care-	.	.	.	.	.	.
8G	-full-	8B	-full-	.	.	.	.	.	.
=171	=171	=171	=171	=171	=171	=171	=171	=171	=171
2.A	-y	2.c	-y	1DMm	.	voice	A	307.719	D:7
4r	.	4r	.	.	.	.	.	.	.
=172	=172	=172	=172	=172	=172	=172	=172	=172	=172
2.r	.	2.r	.	1DMm	.	voice	.	309.53	D:7
8A	Ain't	8d	Ain't	.	.	.	.	.	.
8G	it	8B	it	.	.	.	.	.	.
=173	=173	=173	=173	=173	=173	=173	=173	=173	=173
8B	fun-	8d	fun-	1GM	newline	voice	.	311.341	G:maj
4.B	-ny	4.d	-ny	.	.	.	.	.	.
4B	how	4d	how	.	.	.	.	.	.
8B	your	8d	your	.	.	.	.	.	.
[8B	new	[8d	new	.	.	.	.	.	.
=174	=174	=174	=174	=174	=174	=174	=174	=174	=174
8B]	_	8d]	_	1GMM	.	voice	.	313.139	G:maj7
4B	life	4d	life	.	.	.	.	.	.
8r	.	8r	.	.	.	.	.	.	.
8r	.	8r	.	.	.	.	.	.	.
8B	did-	8e	did-	.	.	.	.	.	.
8A	-n't	8d	-n't	.	.	.	.	.	.
16B	change	16e	change	.	.	.	(F	.	.
16A	_	16d	_	.	.	.	.	.	.
=175	=175	=175	=175	=175	=175	=175	=175	=175	=175
4G	_	4B	_	1CM	.	voice	.	314.938	C:maj
2G	things	2B	things	.	.	.	f)	.	.
4r	.	4r	.	.	.	.	.	.	.
=176	=176	=176	=176	=176	=176	=176	=176	=176	=176
2r	.	2r	.	1CM	.	voice	.	316.736	C:maj
4.r	.	4.r	.	.	.	.	.	.	.
8G	You're	8B	You're	.	.	.	.	.	.
=177	=177	=177	=177	=177	=177	=177	=177	=177	=177
4A	still	4c	still	1Am	newline	voice	.	318.535	A:min
8A	the	8c	the	.	.	.	.	.	.
4A	same	4c	same	.	.	.	.	.	.
8A	old	8c	old	.	.	.	.	.	.
4B	_	4d	_	.	.	.	.	.	.
=178	=178	=178	=178	=178	=178	=178	=178	=178	=178
8A	girl	8c	girl	1CM	.	voice	.	320.345	C:maj
8G	_	8B	_	.	.	.	.	.	.
4G	you	4B	you	.	.	.	.	.	.
4E	used	4G	used	.	.	.	.	.	.
8G	to	8B	to	.	.	.	.	.	.
[8G	be	[8B	be	.	.	.	A	.	.
=179	=179	=179	=179	=179	=179	=179	=179	=179	=179
4G]	_	4B]	_	1GM	.	voice	.	322.155	G:maj
4r	.	4r	.	.	.	.	.	.	.
2r	.	2r	.	.	.	.	.	.	.
=180	=180	=180	=180	=180	=180	=180	=180	=180	=180
2r	.	2r	.	1GM	.	voice	.	323.966	G:maj
8B	You	8d	You	.	.	.	.	.	.
4.d	can't	4.g	can't	.	.	.	.	.	.
=181	=181	=181	=181	=181	=181	=181	=181	=181	=181
*>Letter>C2	*>Letter>C2	*>Letter>C2	*>Letter>C2	*>Letter>C2	*>Letter>C2	*>Letter>C2	*>Letter>C2	*>Letter>C2	*>Letter>C2
*>Label>Chorus	*>Label>Chorus	*>Label>Chorus	*>Label>Chorus	*>Label>Chorus	*>Label>Chorus	*>Label>Chorus	*>Label>Chorus	*>Label>Chorus	*>Label>Chorus
[1d	hide	[1g	hide	1GM	newline	voice	C	325.776	G:maj
=182	=182	=182	=182	=182	=182	=182	=182	=182	=182
4d]	_	4g]	_	1CM	.	voice	.	327.59	C:maj/5
4d	your	4g	your	.	.	.	.	.	.
16B	ly-	16d	ly-	.	.	.	(C	.	.
16A	_	16c	_	.	.	.	.	.	.
8G	_	8B	_	.	.	.	.	.	.
8G	-in'	8B	-in'	.	.	.	c)	.	.
[8G	eyes	[8B	eyes	.	.	.	C	.	.
=183	=183	=183	=183	=183	=183	=183	=183	=183	=183
2.G]	_	2.B]	_	1GM	.	voice	.	329.404	G:maj
4r	.	4r	.	.	.	.	.	.	.
=184	=184	=184	=184	=184	=184	=184	=184	=184	=184
2r	.	2r	.	1GM	.	voice	.	331.218	G:maj
8B	And	8d	And	.	.	.	.	.	.
4.d	your	4.f#	your	.	.	.	.	.	.
=185	=185	=185	=185	=185	=185	=185	=185	=185	=185
1e	smile	8g	smile	1Em	newline	voice	C	333.033	E:min
.	.	8a	_	.	.	.	.	.	.
.	.	2.g	_	.	.	.	.	.	.
=186	=186	=186	=186	=186	=186	=186	=186	=186	=186
4d	_	4f#	_	1Bm	.	voice	.	334.826	B:min
8d	is	8f#	is	.	.	.	.	.	.
8d	a	8f#	a	.	.	.	.	.	.
16B	thin	16d	thin	.	.	.	.	.	.
16A	_	16c	_	.	.	.	.	.	.
8G	_	8B	_	.	.	.	.	.	.
8G	dis-	8B	dis-	.	.	.	.	.	.
8A	_	8c	_	.	.	.	.	.	.
=187	=187	=187	=187	=187	=187	=187	=187	=187	=187
1A	-guise	1c	-guise	1Am	.	voice	C	336.619	A:min
=188	=188	=188	=188	=188	=188	=188	=188	=188	=188
2r	.	2r	.	1DMm	.	voice	.	338.412	D:7
4B	thought	4d	thought	.	.	.	.	.	.
4d	by	4g	by	.	.	.	.	.	.
=189	=189	=189	=189	=189	=189	=189	=189	=189	=189
[1d	now	[1g	now	1GM	newline	voice	.	340.205	G:maj
=190	=190	=190	=190	=190	=190	=190	=190	=190	=190
4d]	_	4g]	_	1GMm	.	voice	.	342.004	G:7
4d	you'd	4g	you'd	.	.	.	.	.	.
16B	re-	16d	re-	.	.	.	.	.	.
16A	_	16c	_	.	.	.	.	.	.
8G	_	8B	_	.	.	.	.	.	.
8G	-a-	8B	-a-	.	.	.	.	.	.
[8G	-lize	[8c	-lize	.	.	.	C	.	.
=191	=191	=191	=191	=191	=191	=191	=191	=191	=191
1G]	_	1c]	_	1CM	.	voice	.	343.802	C:maj
=192	=192	=192	=192	=192	=192	=192	=192	=192	=192
2A	_	2c#	_	1AM	.	voice	.	345.601	A:maj
4.r	.	4.r	.	.	.	.	.	.	.
8G	there	8c	there	.	.	.	.	.	.
=193	=193	=193	=193	=193	=193	=193	=193	=193	=193
8A	ain't	8c	ain't	1Am	newline	voice	.	347.4	A:min
4A	no	4c	no	.	.	.	.	.	.
4.A	way	4.c	way	.	.	.	.	.	.
8B	to	8d	to	.	.	.	.	.	.
8A	hide	8c	hide	.	.	.	C	.	.
=194	=194	=194	=194	=194	=194	=194	=194	=194	=194
4G	_	4B	_	1DMm	.	voice	.	349.197	D:7
4G	your	4B	your	.	.	.	.	.	.
4E	ly-	4B	ly-	.	.	.	(C	.	.
8G	-in'	8B	-in'	.	.	.	c)	.	.
[8G	eyes	[8B	eyes	.	.	.	C	.	.
=195	=195	=195	=195	=195	=195	=195	=195	=195	=195
1G]	_	1B]	_	1GM	newline	voice	.	350.994	G:maj
=196	=196	=196	=196	=196	=196	=196	=196	=196	=196
2r	.	2r	.	1GMM	.	voice	.	352.807	G:maj7
4.r	.	4.r	.	.	.	.	.	.	.
8G	there	8c	there	.	.	.	.	.	.
=197	=197	=197	=197	=197	=197	=197	=197	=197	=197
8A	ain't	8c	ain't	1Am	.	voice	.	354.62	A:min
4A	no	4c	no	.	.	.	.	.	.
4.A	way	4.c	way	.	.	.	.	.	.
8B	to	8d	to	.	.	.	.	.	.
8A	hide	8c	hide	.	.	.	C	.	.
=198	=198	=198	=198	=198	=198	=198	=198	=198	=198
4G	_	4B	_	1DMm	.	voice	.	356.433	D:7
4G	your	4B	your	.	.	.	.	.	.
4E	ly-	4B	ly-	.	.	.	(C	.	.
8G	-in'	8B	-in'	.	.	.	c)	.	.
[8G	eyes	[8B	eyes	.	.	.	C	.	.
=199	=199	=199	=199	=199	=199	=199	=199	=199	=199
2G]	_	2B]	_	1GM	newline	voice	.	358.245	G:maj
2r	.	2r	.	.	.	.	.	.	.
=200	=200	=200	=200	=200	=200	=200	=200	=200	=200
1r	.	1r	.	1GMM	.	voice	.	360.046	G:maj7
=201	=201	=201	=201	=201	=201	=201	=201	=201	=201
8A	Ho-	8c	Ho-	1Am	.	voice	.	361.846	A:min
4.A	-ney	4.c	-ney	.	.	.	.	.	.
8A	you	8c	you	.	.	.	.	.	.
8A	can't	8c	can't	.	.	.	.	.	.
4B	_	4d	_	.	.	.	.	.	.
=202	=202	=202	=202	=202	=202	=202	=202	=202	=202
4A	hide	4c	hide	1DMm	.	voice	C	363.647	D:7
4G	your	4B	your	.	.	.	.	.	.
4E	ly-	4B	ly-	.	.	.	(C	.	.
8G	-in'	8B	-in'	.	.	.	c)	.	.
[8G	eyes	[8B	eyes	.	.	.	C	.	.
=203	=203	=203	=203	=203	=203	=203	=203	=203	=203
2G]	_	2B]	_	1GM	newline	guitar	.	365.447	G:maj
2r	.	2r	.	.	.	.	.	.	.
=204	=204	=204	=204	=204	=204	=204	=204	=204	=204
1r	.	1r	.	1GMM	.	guitar	.	367.268	G:maj7
=205	=205	=205	=205	=205	=205	=205	=205	=205	=205
1r	.	1r	.	1Am	.	guitar	.	369.089	A:min
=206	=206	=206	=206	=206	=206	=206	=206	=206	=206
1r	.	1r	.	1DMm	.	guitar	.	370.91	D:7
=207	=207	=207	=207	=207	=207	=207	=207	=207	=207
1r	.	1r	.	2GM	newline	guitar	.	372.731	G:maj
.	.	.	.	2CM	.	guitar	.	373.654	C:maj
=208	=208	=208	=208	=208	=208	=208	=208	=208	=208
1r	.	1r	.	1GM	.	guitar	.	374.577	G:maj
r;	.	r;	.	1r;	.	r	.	379.884	N.C.
r;	.	r;	.	1r;	.	r	.	380.709	N.C.
*-	*-	*-	*-	*-	*-	*-	*-	*-	*-
!!!BillboardChartDate: 1975/10/04
!!!BillboardPeak: 2
!!!BillboardWeeksOnChart: 14
!!!COC: Eagles
!!!ENC: Nathaniel Condit-Schultz
!!!EST: Awating manual error checking and editing.
!!!OTL: Lyin' Eyes
!!!RDF**chordsym: original McGill chord annotation + (implied pitch class set, with bass pitch in first position)
!!!RDF**harmony: **recip + pitch class of root + harmonic quality
!!!RDF**leadinstrument: original McGill primary instrumentation annotation
!!!RDF**phrase: newline = linebreak in original McGill transcription
!!!RDF**timestamp: McGill audio timestamp in seconds
!!!RDT: 2017/01/12/
!!!SampleActualRank: 18
!!!SampleID#: 0296
!!!SampleTargetRank: 19
